source/img/svg/logoMobile.svg

<svg width="67" height="24" viewBox="0 0 67 24" fill="none" xmlns="http://www.w3.org/2000/svg">
<g id="logo">
<path id="BECO" d="M35.258 13.002C35.7807 13.0953 36.224 13.3707 36.588 13.828C36.952 14.2853 37.134 14.8033 37.134 15.382C37.134 15.8767 37.0033 16.3247 36.742 16.726C36.49 17.118 36.1213 17.4307 35.636 17.664C35.1507 17.888 34.586 18 33.942 18H30.05V8.27H33.76C34.4227 8.27 34.992 8.382 35.468 8.606C35.944 8.83 36.3033 9.13333 36.546 9.516C36.7887 9.88933 36.91 10.3093 36.91 10.776C36.91 11.336 36.7607 11.8027 36.462 12.176C36.1633 12.5493 35.762 12.8247 35.258 13.002ZM31.646 12.358H33.62C34.1427 12.358 34.5487 12.2413 34.838 12.008C35.1367 11.7653 35.286 11.42 35.286 10.972C35.286 10.5333 35.1367 10.1927 34.838 9.95C34.5487 9.698 34.1427 9.572 33.62 9.572H31.646V12.358ZM33.802 16.698C34.3433 16.698 34.768 16.5673 35.076 16.306C35.384 16.0447 35.538 15.6807 35.538 15.214C35.538 14.738 35.3747 14.36 35.048 14.08C34.7213 13.8 34.2873 13.66 33.746 13.66H31.646V16.698H33.802ZM40.4644 9.558V12.414H43.8244V13.716H40.4644V16.698H44.2444V18H38.8684V8.256H44.2444V9.558H40.4644ZM45.6782 13.114C45.6782 12.162 45.8975 11.308 46.3362 10.552C46.7842 9.796 47.3862 9.208 48.1422 8.788C48.9075 8.35867 49.7428 8.144 50.6482 8.144C51.6842 8.144 52.6035 8.40067 53.4062 8.914C54.2182 9.418 54.8062 10.1367 55.1702 11.07H53.2522C53.0002 10.5567 52.6502 10.174 52.2022 9.922C51.7542 9.67 51.2362 9.544 50.6482 9.544C50.0042 9.544 49.4302 9.68867 48.9262 9.978C48.4222 10.2673 48.0255 10.6827 47.7362 11.224C47.4562 11.7653 47.3162 12.3953 47.3162 13.114C47.3162 13.8327 47.4562 14.4627 47.7362 15.004C48.0255 15.5453 48.4222 15.9653 48.9262 16.264C49.4302 16.5533 50.0042 16.698 50.6482 16.698C51.2362 16.698 51.7542 16.572 52.2022 16.32C52.6502 16.068 53.0002 15.6853 53.2522 15.172H55.1702C54.8062 16.1053 54.2182 16.824 53.4062 17.328C52.6035 17.832 51.6842 18.084 50.6482 18.084C49.7335 18.084 48.8982 17.874 48.1422 17.454C47.3862 17.0247 46.7842 16.432 46.3362 15.676C45.8975 14.92 45.6782 14.066 45.6782 13.114ZM61.4763 18.098C60.5709 18.098 59.7356 17.888 58.9703 17.468C58.2143 17.0387 57.6123 16.446 57.1643 15.69C56.7256 14.9247 56.5063 14.066 56.5063 13.114C56.5063 12.162 56.7256 11.308 57.1643 10.552C57.6123 9.796 58.2143 9.208 58.9703 8.788C59.7356 8.35867 60.5709 8.144 61.4763 8.144C62.3909 8.144 63.2263 8.35867 63.9823 8.788C64.7476 9.208 65.3496 9.796 65.7883 10.552C66.2269 11.308 66.4463 12.162 66.4463 13.114C66.4463 14.066 66.2269 14.9247 65.7883 15.69C65.3496 16.446 64.7476 17.0387 63.9823 17.468C63.2263 17.888 62.3909 18.098 61.4763 18.098ZM61.4763 16.712C62.1203 16.712 62.6943 16.5673 63.1983 16.278C63.7023 15.9793 64.0943 15.5593 64.3743 15.018C64.6636 14.4673 64.8083 13.8327 64.8083 13.114C64.8083 12.3953 64.6636 11.7653 64.3743 11.224C64.0943 10.6827 63.7023 10.2673 63.1983 9.978C62.6943 9.68867 62.1203 9.544 61.4763 9.544C60.8323 9.544 60.2583 9.68867 59.7543 9.978C59.2503 10.2673 58.8536 10.6827 58.5643 11.224C58.2843 11.7653 58.1443 12.3953 58.1443 13.114C58.1443 13.8327 58.2843 14.4673 58.5643 15.018C58.8536 15.5593 59.2503 15.9793 59.7543 16.278C60.2583 16.5673 60.8323 16.712 61.4763 16.712Z" fill="#333333"/>
<g id="logo_2" clip-path="url(#clip0)">
<path id="Vector" d="M11.9817 23.9815C18.599 23.9815 23.9633 18.6172 23.9633 11.9999C23.9633 5.38257 18.599 0.0181885 11.9817 0.0181885C5.36438 0.0181885 0 5.38257 0 11.9999C0 18.6172 5.36438 23.9815 11.9817 23.9815Z" fill="#34ABE0"/>
<path id="Vector_2" d="M24 12.0001C24 13.7549 23.6229 15.4215 22.9451 16.9234C21.2813 20.6103 17.8057 23.3045 13.6532 23.8708C13.2111 23.9314 12.7612 23.9676 12.3054 23.9783C12.21 23.9808 12.1142 23.9818 12.0183 23.9818C7.62521 23.9818 3.78474 21.6177 1.69894 18.0927C1.50432 17.763 1.32432 17.4237 1.161 17.075C0.955598 16.6353 0.775645 16.1815 0.623535 15.7144L16.3195 0.0184631L16.3826 0.838119L16.498 2.3287L18.8087 2.50818L18.9882 4.81846L21.2985 4.99795L21.478 7.3087L23.0992 7.43437C23.6796 8.84184 24 10.3833 24 12.0001Z" fill="#F9EED7"/>
<path id="Vector_3" d="M24.0001 12.0001C24.0001 13.7549 23.623 15.4215 22.9452 16.9234L11.1802 5.15784L16.3196 0.0184631L16.3827 0.838119L16.4981 2.3287L18.8089 2.50818L18.9884 4.81846L21.2986 4.99795L21.4781 7.3087L23.0993 7.43437C23.6798 8.84184 24.0001 10.3833 24.0001 12.0001Z" fill="#FF525D"/>
<path id="Vector_4" d="M16.7221 17.9518L15.474 16.7038C14.6035 15.8332 13.7066 16.0969 12.9681 16.8353C12.2214 17.5826 11.9661 18.4707 12.8366 19.3407L14.0847 20.5892C14.9552 21.4592 15.8433 21.2044 16.59 20.4571C17.3285 19.7188 17.5926 18.8223 16.7221 17.9518ZM15.8257 19.6923C15.5527 19.9652 15.2628 19.9911 14.9728 19.7011L13.7242 18.4531C13.4342 18.1631 13.4607 17.8726 13.7331 17.6002C14.006 17.3278 14.3047 17.2926 14.5948 17.5826L15.8433 18.8311C16.1333 19.1212 16.098 19.4199 15.8257 19.6923ZM13.6279 23.7363L10.384 14.3035C10.3576 14.2248 10.3048 14.1544 10.252 14.1015C9.97077 13.8203 9.5135 13.9079 9.2675 14.1544C9.10907 14.3123 9.03913 14.5236 9.11783 14.7432L12.3054 23.9783C12.7612 23.9676 13.2111 23.9314 13.6532 23.8708C13.6518 23.8238 13.6435 23.7788 13.6279 23.7363ZM9.85635 19.1564L8.6083 17.9078C7.73778 17.0378 6.84139 17.3014 6.10292 18.0399C5.35564 18.7872 5.10087 19.6748 5.97088 20.5453L7.21939 21.7933C8.08939 22.6638 8.97754 22.409 9.72477 21.6618C10.4632 20.9233 10.7269 20.0264 9.85635 19.1564ZM8.95991 20.8969C8.68752 21.1693 8.39703 21.1957 8.10702 20.9057L6.85897 19.6572C6.56849 19.3672 6.59488 19.0771 6.86778 18.8047C7.14017 18.5324 7.439 18.4971 7.72902 18.7871L8.97753 20.0352C9.26755 20.3252 9.2323 20.6245 8.95991 20.8969Z" fill="#FFD15C"/>
</g>
</g>
<defs>
<clipPath id="clip0">
<rect width="24" height="24" fill="white"/>
</clipPath>
</defs>
</svg>

<svg width="67" height="24" fill="none" xmlns="http://www.w3.org/2000/svg"><path d="M35.258 13.002c.523.093.966.369 1.33.826.364.457.546.975.546 1.554 0 .495-.13.943-.392 1.344-.252.392-.62.705-1.106.938-.485.224-1.05.336-1.694.336H30.05V8.27h3.71c.663 0 1.232.112 1.708.336.476.224.835.527 1.078.91.243.373.364.793.364 1.26 0 .56-.15 1.027-.448 1.4-.299.373-.7.649-1.204.826zm-3.612-.644h1.974c.523 0 .929-.117 1.218-.35.299-.243.448-.588.448-1.036 0-.439-.15-.78-.448-1.022-.29-.252-.695-.378-1.218-.378h-1.974v2.786zm2.156 4.34c.541 0 .966-.13 1.274-.392.308-.261.462-.625.462-1.092 0-.476-.163-.854-.49-1.134-.327-.28-.76-.42-1.302-.42h-2.1v3.038h2.156zm6.662-7.14v2.856h3.36v1.302h-3.36v2.982h3.78V18h-5.376V8.256h5.376v1.302h-3.78zm5.214 3.556c0-.952.22-1.806.658-2.562a4.749 4.749 0 011.806-1.764c.765-.43 1.6-.644 2.506-.644 1.036 0 1.955.257 2.758.77.812.504 1.4 1.223 1.764 2.156h-1.918c-.252-.513-.602-.896-1.05-1.148-.448-.252-.966-.378-1.554-.378-.644 0-1.218.145-1.722.434-.504.29-.9.705-1.19 1.246-.28.541-.42 1.171-.42 1.89 0 .719.14 1.349.42 1.89.29.541.686.961 1.19 1.26.504.29 1.078.434 1.722.434.588 0 1.106-.126 1.554-.378.448-.252.798-.635 1.05-1.148h1.918c-.364.933-.952 1.652-1.764 2.156-.803.504-1.722.756-2.758.756-.915 0-1.75-.21-2.506-.63a4.854 4.854 0 01-1.806-1.778c-.438-.756-.658-1.61-.658-2.562zm15.798 4.984c-.905 0-1.74-.21-2.506-.63a4.854 4.854 0 01-1.806-1.778c-.438-.765-.658-1.624-.658-2.576s.22-1.806.658-2.562a4.749 4.749 0 011.806-1.764c.766-.43 1.6-.644 2.506-.644.915 0 1.75.215 2.506.644a4.622 4.622 0 011.806 1.764c.439.756.658 1.61.658 2.562 0 .952-.22 1.81-.658 2.576a4.721 4.721 0 01-1.806 1.778c-.756.42-1.591.63-2.506.63zm0-1.386c.644 0 1.218-.145 1.722-.434a3.068 3.068 0 001.176-1.26c.29-.55.434-1.185.434-1.904 0-.719-.144-1.349-.434-1.89a2.976 2.976 0 00-1.176-1.246c-.504-.29-1.078-.434-1.722-.434-.644 0-1.218.145-1.722.434-.504.29-.9.705-1.19 1.246-.28.541-.42 1.171-.42 1.89 0 .719.14 1.353.42 1.904.29.541.686.961 1.19 1.26.504.29 1.078.434 1.722.434z" fill="#333"/><g clip-path="url(#clip0)"><path d="M11.982 23.982c6.617 0 11.981-5.365 11.981-11.982C23.963 5.383 18.6.018 11.982.018 5.364.018 0 5.383 0 12c0 6.617 5.364 11.982 11.982 11.982z" fill="#34ABE0"/><path d="M24 12c0 1.755-.377 3.421-1.055 4.923a11.994 11.994 0 01-10.927 7.059A11.976 11.976 0 01.624 15.714L16.32.018l.063.82.115 1.49 2.31.18.18 2.31 2.31.18.18 2.31 1.621.126C23.68 8.842 24 10.384 24 12z" fill="#F9EED7"/><path d="M24 12c0 1.755-.377 3.421-1.055 4.923L11.18 5.158l5.14-5.14.063.82.115 1.49 2.31.18.18 2.31 2.31.18.18 2.31 1.621.126C23.68 8.842 24 10.384 24 12z" fill="#FF525D"/><path d="M16.722 17.952l-1.248-1.248c-.87-.87-1.767-.607-2.506.131-.747.748-1.002 1.636-.131 2.506l1.248 1.248c.87.87 1.758.615 2.505-.132.738-.738 1.003-1.635.132-2.505zm-.896 1.74c-.273.273-.563.3-.853.01l-1.249-1.249c-.29-.29-.263-.58.01-.853.272-.272.57-.307.86-.017l1.25 1.248c.29.29.254.589-.018.861zm-2.198 4.044l-3.244-9.433a.543.543 0 00-.132-.202c-.281-.28-.739-.193-.985.053-.158.158-.228.37-.15.59l3.188 9.234c.456-.01.906-.047 1.348-.107a.425.425 0 00-.025-.135zm-3.772-4.58l-1.248-1.248c-.87-.87-1.767-.607-2.505.132-.747.747-1.002 1.635-.132 2.505l1.248 1.248c.87.87 1.759.616 2.506-.131.738-.739 1.002-1.636.131-2.506zm-.896 1.74c-.272.273-.563.3-.853.01l-1.248-1.249c-.29-.29-.264-.58.009-.852.272-.273.571-.308.861-.018l1.249 1.248c.29.29.254.59-.018.862z" fill="#FFD15C"/></g><defs><clipPath id="clip0"><path fill="#fff" d="M0 0h24v24H0z"/></clipPath></defs></svg>
